X: 1
T:Ach Gott und Herr
T:BWV 255
C:Johann Sebastian Bach
O:Germany
Z:Transcribed by Frank Nordberg - http://www.musicaviva.com

V:1 Program 1 6 up %Harpsichord
V:2 Program 1 6 merge down %Harpsichord
V:3 Program 1 6 bass up %Harpsichord
V:4 Program 1 6 bass merge down %Harpsichord
M:4/4
L:1/4
Q:1/4=96
K:C
V:1
c|BA GG|AB Hcd|cB AB/c/|A2 HGc|
V:2
G|G^F DE/D/|CD HEG-|G/^F/G ^FG-|G^F HDG|
V:3
E|D&gt;C B,C/_B,/|A,/G,/F, HG,B,|CD DD|ED/C/ HB,C|
V:4
C,|G,D, G,,C,|F,/E,/D, HC,G,,|A,,B,,/C,/ D,G,|C,D, HG,,E,|

V:1
Bc dd|ed/c/ HdG|AB c/d/e/f/|d2 Hc2|]
V:2
FG GG|GF HGG|DD C&gt;A G&gt;F HE2|]
V:3
DE B,B,|CC HB,C|CB, E/F/G/C/|CB, HG,2|]
V:4
D,C, G,G,|C/B,/A, HG,E,|^F,^G, A,=G,/=F,/ G,G,, HC,2|]

